src/components/Home/Core/assets/core-ssp.svg

<svg width="84" height="59" viewBox="0 0 84 59" fill="none" xmlns="http://www.w3.org/2000/svg">
<path d="M63.5415 59H0V0H63.5415V59Z" fill="white"/>
<path d="M61.7466 2.38477H1.83594V11.7684H61.7466V2.38477Z" fill="#B69538"/>
<path d="M63.5415 59H0V0H63.5415V59ZM2.88726 56.1127H60.6542V2.88726H2.88726V56.1127Z" fill="#4C4C4C"/>
<path d="M62.0995 10.708H1.44531V13.5953H62.0995V10.708Z" fill="#4C4C4C"/>
<path d="M16.1675 8.52781C17.1632 8.11538 17.636 6.97389 17.2235 5.97822C16.8111 4.98255 15.6696 4.50975 14.6739 4.92217C13.6783 5.3346 13.2054 6.47609 13.6179 7.47176C14.0303 8.46743 15.1718 8.94024 16.1675 8.52781Z" fill="#4C4C4C"/>
<path d="M9.51848 8.61329C10.5673 8.36564 11.2167 7.31466 10.9691 6.26586C10.7214 5.21707 9.67046 4.56761 8.62166 4.81526C7.57287 5.06291 6.92342 6.11389 7.17107 7.16268C7.41871 8.21148 8.46969 8.86094 9.51848 8.61329Z" fill="#4C4C4C"/>
<path d="M23.5633 7.47099C23.9757 6.47533 23.5029 5.33384 22.5073 4.92141C21.5116 4.50899 20.3701 4.98179 19.9577 5.97746C19.5453 6.97313 20.0181 8.11461 21.0137 8.52704C22.0094 8.93947 23.1509 8.46666 23.5633 7.47099Z" fill="#4C4C4C"/>
<path d="M27.2949 21.2676H12.3281V24.1548H27.2949V21.2676Z" fill="#4C4C4C"/>
<path d="M35.8953 21.2676H31.1758V24.1548H35.8953V21.2676Z" fill="#4C4C4C"/>
<path d="M21.4449 29.1768H17.9609V32.064H21.4449V29.1768Z" fill="#4C4C4C"/>
<path d="M51.2147 29.1768H24.8203V32.064H51.2147V29.1768Z" fill="#4C4C4C"/>
<path d="M51.2147 37.1465H24.8203V40.0337H51.2147V37.1465Z" fill="#4C4C4C"/>
<path d="M34.3237 45.1152H19.8008V48.0025H34.3237V45.1152Z" fill="#4C4C4C"/>
<path d="M55.5738 53.0132C50.1698 53.0132 44.85 51.5937 40.1919 48.9085C35.6769 46.3064 31.8646 42.5734 29.1662 38.1137L27.8477 35.9339L29.1662 33.754C31.8646 29.2944 35.6769 25.5614 40.1919 22.9592C44.8512 20.2741 50.1698 18.8545 55.5738 18.8545C60.9778 18.8545 66.2976 20.2741 70.9557 22.9592C75.4706 25.5614 79.283 29.2944 81.9814 33.754L83.2999 35.9339L81.9814 38.1137C79.283 42.5734 75.4706 46.3064 70.9557 48.9085C66.2964 51.5937 60.9778 53.0132 55.5738 53.0132Z" fill="white"/>
<path d="M55.5738 50.1857C50.6642 50.1857 45.8329 48.8973 41.603 46.4587C37.5007 44.0948 34.0372 40.7022 31.5854 36.6504L31.1523 35.9346L31.5854 35.2188C34.0372 31.1658 37.5007 27.7745 41.603 25.4106C45.8329 22.972 50.6642 21.6836 55.5738 21.6836C60.4833 21.6836 65.3147 22.972 69.5445 25.4106C73.6468 27.7745 77.1104 31.167 79.5621 35.2188L79.9952 35.9346L79.5621 36.6504C77.1104 40.7034 73.6468 44.0948 69.5445 46.4587C65.3135 48.8973 60.4833 50.1857 55.5738 50.1857Z" fill="#B69538"/>
<path d="M55.5691 49.0269C48.3497 49.0269 42.4766 43.1537 42.4766 35.9343C42.4766 28.715 48.3497 22.8418 55.5691 22.8418C62.7885 22.8418 68.6616 28.715 68.6616 35.9343C68.6616 43.1537 62.7885 49.0269 55.5691 49.0269Z" fill="white"/>
<path d="M55.5738 50.1857C50.6642 50.1857 45.8329 48.8973 41.603 46.4587C37.5007 44.0948 34.0372 40.7022 31.5854 36.6504L31.1523 35.9346L31.5854 35.2188C34.0372 31.1658 37.5007 27.7745 41.603 25.4106C45.8329 22.972 50.6642 21.6836 55.5738 21.6836C60.4833 21.6836 65.3147 22.972 69.5445 25.4106C73.6468 27.7745 77.1104 31.167 79.5621 35.2188L79.9952 35.9346L79.5621 36.6504C77.1104 40.7034 73.6468 44.0948 69.5445 46.4587C65.3135 48.8973 60.4833 50.1857 55.5738 50.1857ZM34.4017 35.9346C39.0863 43.142 46.9397 47.4187 55.5738 47.4187C64.2079 47.4187 72.0601 43.142 76.7458 35.9346C72.0613 28.7273 64.2079 24.4506 55.5738 24.4506C46.9397 24.4506 39.0863 28.7273 34.4017 35.9346Z" fill="#4C4C4C"/>
<path d="M55.5691 49.0269C48.3497 49.0269 42.4766 43.1537 42.4766 35.9343C42.4766 28.715 48.3497 22.8418 55.5691 22.8418C62.7885 22.8418 68.6616 28.715 68.6616 35.9343C68.6616 43.1537 62.7885 49.0269 55.5691 49.0269ZM55.5691 25.6076C49.8752 25.6076 45.2435 30.2392 45.2435 35.9331C45.2435 41.627 49.8752 46.2587 55.5691 46.2587C61.263 46.2587 65.8947 41.627 65.8947 35.9331C65.8947 30.2404 61.263 25.6076 55.5691 25.6076Z" fill="#4C4C4C"/>
<path d="M55.5746 43.1715C51.5829 43.1715 48.3359 39.9246 48.3359 35.9329H51.1029C51.1029 38.3979 53.1084 40.4046 55.5746 40.4046C58.0408 40.4046 60.0462 38.3991 60.0462 35.9329C60.0462 33.4667 58.0408 31.4613 55.5746 31.4613V28.6943C59.5662 28.6943 62.8132 31.9413 62.8132 35.9329C62.812 39.9246 59.565 43.1715 55.5746 43.1715Z" fill="#4C4C4C"/>
</svg>

<svg width="84" height="59" fill="none" xmlns="http://www.w3.org/2000/svg"><path d="M63.541 59H0V0h63.541v59z" fill="#fff"/><path d="M61.747 2.385H1.836v9.383h59.91V2.385z" fill="#B69538"/><path d="M63.541 59H0V0h63.541v59zM2.887 56.113h57.767V2.887H2.887v53.226z" fill="#4C4C4C"/><path d="M62.1 10.708H1.444v2.887H62.1v-2.887zm-45.933-2.18a1.951 1.951 0 1 0-1.493-3.606 1.951 1.951 0 0 0 1.494 3.606zm-6.649.085a1.951 1.951 0 1 0-.896-3.798 1.951 1.951 0 0 0 .896 3.798zm14.045-1.142a1.951 1.951 0 1 0-3.605-1.494 1.951 1.951 0 0 0 3.605 1.494zm3.732 13.797H12.328v2.887h14.967v-2.887zm8.6 0h-4.72v2.887h4.72v-2.887zm-14.45 7.909H17.96v2.887h3.484v-2.887zm29.77 0H24.82v2.887h26.395v-2.887zm0 7.97H24.82v2.887h26.395v-2.887zm-16.891 7.968H19.8v2.887h14.523v-2.887z" fill="#4C4C4C"/><path d="M55.574 53.013a30.839 30.839 0 0 1-15.382-4.105 31.033 31.033 0 0 1-11.026-10.794l-1.318-2.18 1.318-2.18a31.035 31.035 0 0 1 11.026-10.795 30.843 30.843 0 0 1 15.382-4.104 30.84 30.84 0 0 1 15.382 4.104A31.035 31.035 0 0 1 81.98 33.754l1.319 2.18-1.319 2.18a31.034 31.034 0 0 1-11.025 10.794 30.842 30.842 0 0 1-15.382 4.105z" fill="#fff"/><path d="M55.574 50.186c-4.91 0-9.741-1.289-13.971-3.727a28.196 28.196 0 0 1-10.018-9.809l-.433-.715.433-.716a28.186 28.186 0 0 1 10.018-9.808 28.005 28.005 0 0 1 13.97-3.727c4.91 0 9.742 1.288 13.971 3.727a28.195 28.195 0 0 1 10.018 9.808l.433.716-.433.715a28.185 28.185 0 0 1-10.017 9.809 28.008 28.008 0 0 1-13.971 3.727z" fill="#B69538"/><path d="M55.57 49.027c-7.22 0-13.093-5.873-13.093-13.093 0-7.219 5.873-13.092 13.092-13.092 7.22 0 13.093 5.873 13.093 13.092 0 7.22-5.874 13.093-13.093 13.093z" fill="#fff"/><path d="M55.574 50.186c-4.91 0-9.741-1.289-13.971-3.727a28.196 28.196 0 0 1-10.018-9.809l-.433-.715.433-.716a28.186 28.186 0 0 1 10.018-9.808 28.005 28.005 0 0 1 13.97-3.727c4.91 0 9.742 1.288 13.971 3.727a28.195 28.195 0 0 1 10.018 9.808l.433.716-.433.715a28.185 28.185 0 0 1-10.017 9.809 28.008 28.008 0 0 1-13.971 3.727zM34.402 35.935c4.684 7.207 12.538 11.484 21.172 11.484s16.486-4.277 21.172-11.484C72.06 28.727 64.208 24.45 55.574 24.45s-16.488 4.276-21.172 11.484z" fill="#4C4C4C"/><path d="M55.57 49.027c-7.22 0-13.093-5.873-13.093-13.093 0-7.219 5.873-13.092 13.092-13.092 7.22 0 13.093 5.873 13.093 13.092 0 7.22-5.874 13.093-13.093 13.093zm0-23.42c-5.695 0-10.327 4.632-10.327 10.326 0 5.694 4.632 10.326 10.326 10.326 5.694 0 10.326-4.632 10.326-10.326 0-5.693-4.632-10.325-10.326-10.325z" fill="#4C4C4C"/><path d="M55.575 43.172c-3.992 0-7.24-3.247-7.24-7.24h2.768a4.477 4.477 0 0 0 4.472 4.473 4.476 4.476 0 0 0 4.471-4.472 4.476 4.476 0 0 0-4.471-4.472v-2.767c3.991 0 7.238 3.247 7.238 7.239-.001 3.992-3.248 7.239-7.238 7.239z" fill="#4C4C4C"/></svg>
